X:108
T: ES KANN UNS NICHTS SCHOENRES ERFREUEN
N: Z0108
O: Europa, Mitteleuropa, Deutschland
N: "Alte Romanze"
R: Sagen - Lied, Romanze, Tod
M: 6/8
L: 1/16
K: A
E2 | A2E2A2c2A2c2 | e3fedc4z2
c6d2c2d2 | e4fedc4
cd | e2f2e2d2c2d2 | c4z6
e2 | c2d2e2c2d2e2 | c6B6
c6d2c2d2 | e4d2c4
cd | e2f2e2d2c2d2 | c4z6
e2 | c2d2e2c2d2e2 | c6B6
c6d2c2d2 | e4d2c4
cd | e2f2e2d2c2d2 | c4z6

